dist/assets/img/simplelegal.svg

<svg width="284" height="65" viewBox="0 0 284 65" xmlns="http://www.w3.org/2000/svg"><title>simplelegal</title><g fill="none"><path d="M41.1.3c1.1.2 2.2.5 3.2.7C49 2.1 53 4.4 56.1 8.1c.4.5.7 1 1 1.4.1.1.1.3.3.7-.6-.6-1-.9-1.3-1.2-5.9-4.9-12.6-5.8-19.7-3.4-5.6 1.8-10.2 5.2-14.5 9-.3.2-.5.6-.8.7-.5.1-1.2.2-1.7 0-.4-.2-.7-.9-.7-1.3.1-.8.3-1.7.8-2.3.9-1.2 1.8-2.5 2.9-3.4 4.3-3.7 9-6.7 14.8-7.6.3-.1.7-.2 1-.3 1-.1 1.9-.1 2.9-.1z" fill="#63B7D2"/><path d="M242.8 23.9c0-.7.1-1.3.1-2h4.2v21c0 4-1.3 7.2-5.2 8.9-3.8 1.7-8.8.8-11.7-2.1.9-.9 1.9-1.7 2.9-2.6 2.2 1.8 4.8 2.6 7.4 1 2.7-1.6 2.2-4.5 2.2-7.4-1.7 1.8-3.6 2.5-5.8 2.4-3.7-.1-6.3-2.2-7-5.9-.6-3.2-.6-6.4 0-9.7.5-2.7 1.8-4.8 4.5-5.6 2.9-.9 5.6-.7 7.9 1.6.1.1.2.2.5.4zm-9.1 8.3h.1c.1.9.1 1.9.3 2.8.1.6.3 1.2.5 1.7.6 1.6 1.7 2.3 3.8 2.2 1.9 0 3.1-.7 3.6-2.2 1-3 1-6.1 0-9.1-.5-1.6-1.7-2.2-3.6-2.2-2 0-3.3.6-3.8 2.2-.4 1.6-.6 3.1-.9 4.6zm35.1 11.3h-4.1c0-.5-.1-1-.1-1.5-.1 0-.3 0-.3.1-2.5 2.1-5.4 2.1-8.3 1.4-3.2-.8-4.9-3.5-4.6-6.9.3-3.1 2.5-5.3 6-5.5 2-.2 4-.1 5.9-.1h1.3c0-2 .2-4-1.8-5-2.3-1.2-5.5-.6-7.7 1.5-.9-.9-1.9-1.7-2.8-2.6 1.6-2.1 3.8-3.1 6.2-3.1 2 0 4.1.1 6.1.6 2.7.7 4.3 2.7 4.4 5.5.2 5.2.1 10.4.1 15.5-.2-.1-.2 0-.3.1zm-4.2-9.5H259c-.7 0-1.3.2-1.9.5-1.1.5-1.5 1.5-1.5 2.7 0 1.2.5 2 1.6 2.5 4 1.8 7.4-.4 7.4-4.6V34zm-39.4 6.3c-2.7 3.2-7.4 4.4-11.8 2.9-4.2-1.4-5.7-4.7-6-8.7-.1-1.9 0-4 .4-5.9 1.1-4.8 4.6-7.4 9.3-7.2 4.6.3 7.9 3.4 8.5 8.3.2 1.3.2 2.7.2 4.2h-14.2c.1 2.4.6 4.4 2.8 5.4 2.9 1.4 5.6.8 8.1-1.6.9 1 1.8 1.8 2.7 2.6zm-3.8-9.5c-.1-2.1-.5-3.9-2.4-5-1.7-1-3.5-.9-5.2.2-1.6 1.1-2.1 2.8-2.1 4.8h9.7z" fill="#144664"/><path d="M53.3 54c.8-1.4 1.6-2.6 2.1-3.9 2.8-6.1 2.5-12.1-1-17.8-2.3-3.8-5.4-6.8-9.1-9.2-2.5-1.6-5.1-2.9-7.7-4.4-.8-.4-1.6-.8-1.4-1.9.2-1.2 1.2-1.6 2.2-1.5 1.2 0 2.5.1 3.6.5 7.8 2.9 14 7.8 17.8 15.2 2.7 5.2 2.7 10.8.1 16.2-1.5 2.9-3.6 5.1-6.6 6.8z" fill="#63B7D2"/><path d="M17.7 58.2c2 .3 4 .7 6 .8 5.8.3 10.6-1.9 14.4-6.2 3.9-4.4 5.9-9.6 7-15.2.4-1.9.7-3.7 1-5.6.1-.8.3-1.6 1.3-1.8 1-.2 1.8.4 2 1.2.4 1.3.9 2.8.8 4.1-.4 8.1-3 15.4-8.8 21.2-5.3 5.4-11.9 7-19.2 4.4-1.7-.6-3.2-1.8-4.8-2.7.2-.1.2-.1.3-.2zm42.8-39c-.3-.3-.4-.5-.5-.6-5.9-7.5-14-9.7-22.9-6.2-3.9 1.5-7.3 3.7-10.4 6.6-1.6 1.5-3.2 3.1-4.8 4.5-.5.4-1.5.8-1.8.6-.5-.3-.8-1.2-1-1.9-.1-.4.1-.9.3-1.4.2-.6.4-1.2.8-1.7 6.4-8.2 14.3-13.7 25.1-13.2 7.5.3 14 6.1 15.2 13.3z" fill="#63B7D2"/><path d="M29.4 1.3c-.3.1-.7.3-1 .4C19.9 4.9 15.2 12.6 16 21.6c.4 5.5 2.4 10.5 4.8 15.4.4.8.9 1.6 1.2 2.4.2.5.2 1.4-.1 1.7-.4.4-1.4.7-1.9.5-1.1-.6-2.2-1.4-3.1-2.3-2.2-2.5-3.5-5.5-4.4-8.6C11 26 10 21.2 10.9 16.1c1.3-7.7 7.1-13.7 14.3-15C26.1 1 27 1 27.9 1c.5 0 1 0 1.5.1v.2z" fill="#63B7D2"/><path d="M2.7 25.5c.6 2.5 1 5.3 1.9 7.8 2.5 6.5 7.8 9.7 14.3 11.3 5.4 1.3 10.9.7 16.3-.1.5-.1 1.1-.3 1.6-.2.6.1 1.5.3 1.7.7.3.5.2 1.5-.2 1.9-.5.7-1.4 1.4-2.2 1.7-2.2.7-4.4 1.5-6.7 1.8-5.4.6-10.8.3-15.9-1.8-6.6-2.8-10.8-7.6-12-14.7-.5-3-.1-5.9 1.2-8.4z" fill="#63B7D2"/><path d="M185.5 43.5V13.1h4.5v26.3h14.7v4.2c-6.4-.1-12.8-.1-19.2-.1z" fill="#144664"/><path d="M25.4 63.5c9.3.9 16-3 20.7-10.7 2.7-4.3 4.2-9.1 5.2-14.1.1-.3 0-.6.2-.8.4-.4.9-1 1.5-1.1.4-.1 1.2.4 1.3.8.4 1.4.8 2.8.7 4.1-.5 5.5-2.5 10.6-5.7 15-3.5 4.7-8.4 7.1-14.1 7.9-2.9.4-5.8.1-8.6-.7-.5 0-.9-.2-1.2-.4zM61.1 48c.6-2.1 1.2-4 1.6-5.9.9-5.1-.5-9.8-3.3-14.1-3.5-5.3-8.5-9-13.9-12.2-.3-.2-.6-.3-.9-.6-.9-.8-.6-2.4.6-2.6 1-.2 2.1-.1 3 .1 1.1.3 2.2.8 3.3 1.3 3.6 2 6.8 4.6 9.5 7.8 5.6 6.7 6.2 17.3 1.3 24.6-.4.6-.8 1-1.2 1.6z" fill="#63B7D2"/><path d="M118.7 43.5h-1.9v-1.3c0-4 .1-8 0-12 0-1.4-.3-3-.8-4.3-1.3-3.1-4.9-3.8-7.5-1.5-1.7 1.5-2.3 3.5-2.3 5.8v13.3h-1.8V22.1h1.8v2.8c1.8-2.3 3.8-3.7 6.5-3.4 2.7.3 4.5 1.9 5.4 4.7.3-.6.5-1 .7-1.3 1.4-2.3 3.5-3.7 6.3-3.5 2.7.2 4.6 1.7 5.6 4.2.5 1.3.9 2.8.9 4.3.1 4.4 0 8.7 0 13.1 0 .2 0 .3-.1.5h-1.8v-1.4c0-4.5-.1-9.1-.1-13.6 0-.4-.1-.9-.2-1.3-.6-2.1-1.7-3.6-3.9-4-2.2-.4-3.9.7-5.2 2.5-1 1.4-1.4 3.1-1.4 4.8v11.8c-.1.4-.1.8-.2 1.2z" fill="#144664"/><path d="M.2 34.5C2.8 46.1 11.7 50 19.5 51.1c4 .6 8 .5 12.1.1.2 0 .4 0 .6-.1.8-.1 1.6.2 1.8 1 .1.6-.2 1.5-.6 1.8-1 .7-2.2 1.3-3.4 1.7-3.2.9-6.6.8-9.9.5-9.9-.8-17.2-6.9-19.5-16.3-.5-1.7-.8-3.5-.4-5.3zM20 1.4C17.3 3 14.9 5 13.1 7.5 9.9 12 9 17.1 9.5 22.5c.5 5 2 9.7 4.1 14.2.4.9.6 1.7-.2 2.5-.9.7-1.7.2-2.4-.3-.6-.5-1.3-1-1.6-1.7-4-6.6-6.1-13.8-3.9-21.4C7.6 8.6 12.4 3.7 19.7 1.4h.3z" fill="#63B7D2"/><path d="M283.1 39.8v3.9c-1.7-.1-3.3-.1-4.8-.4-2.2-.5-3.3-2.3-3.7-4.5-.1-.5-.1-1.1-.1-1.7V13h4.4v24.8c.2 1.3.8 1.9 2.1 1.9.7.1 1.4.1 2.1.1zm-144.8-15c1.5-1.7 3.2-2.9 5.4-3.2 2.9-.4 5.1.6 6.8 2.9 3.4 4.4 3.3 12.6-.2 17-2.7 3.3-7.4 3.6-10.4.5-.5-.5-1-1.1-1.5-1.8v11.9h-1.8V22.2h1.8c-.1.8-.1 1.7-.1 2.6zm12.8 8c-.1-2.6-.5-5.1-2.1-7.3-1.5-2-3.6-2.8-5.8-2.1-2.3.7-4.7 3.8-4.7 6.2v4.8c-.1 2.3.8 4.2 2.1 5.9 2.7 3.3 6.8 3 8.9-.7 1.1-2.1 1.5-4.4 1.6-6.8zm-58.6-15c-.5.4-.9.7-1.4 1.1-1.7-2.5-3.8-4.2-6.8-4.4-1.7-.1-3.5.1-5.1.6-2 .6-3.1 2.1-3.3 4.2-.2 2.1.4 3.8 2.2 4.9 1.6 1 3.4 1.7 5.1 2.6 2 1 4.1 1.9 6 3 5.5 3.2 4.1 10.9-1 13.3-5.8 2.7-12.2.5-14.8-5.4.4-.3.9-.6 1.4-1 .2.4.3.7.5 1 2.2 4.6 8 6.3 12.4 3.7 3-1.8 4.7-7.1.7-9.8-1.9-1.3-4.2-2.2-6.3-3.3-1.7-.8-3.5-1.5-5.1-2.5-2.4-1.5-3.5-3.8-3.1-6.7.4-2.9 2.1-4.7 4.8-5.7 4.8-1.8 10.3-.4 13.1 3.2.2.4.4.8.7 1.2zm88 15.4H165c0 3 .7 5.6 2.8 7.6 1.7 1.6 3.8 2.1 5.9 1.2 1.4-.6 2.7-1.7 4-2.6 0-.1-.1-.3-.1-.4.5.3 1 .7 1.5 1-2.7 4.8-9.8 5.5-13.4 1.3-2.4-2.8-3.1-6.2-2.7-9.8.2-1.9.7-3.9 1.6-5.7 1.4-2.9 3.8-4.4 7.1-4.4s5.7 1.5 7.2 4.3c1.3 2.4 1.8 4.8 1.6 7.5zm-2.1-1.6c0-4.9-3-8.5-6.8-8.4-3.6.2-6.8 4.2-6.4 8.4h13.2zm-19.5 11.9h-1.7V13.4h1.7v30.1zm-60.2 0H97V22.1h1.7v21.4zm-.8-30.6c.9.1 1.5.6 1.5 1.5s-.6 1.5-1.5 1.5c-.9.1-1.6-.7-1.5-1.6 0-.9.6-1.4 1.5-1.4z" fill="#144664"/></g></svg>

<?xml version="1.0" encoding="UTF-8"?>
<svg width="284px" height="65px" viewBox="0 0 284 65" version="1.1" xmlns="http://www.w3.org/2000/svg" xmlns:xlink="http://www.w3.org/1999/xlink">
    <!-- Generator: Sketch 43.2 (39069) - http://www.bohemiancoding.com/sketch -->
    <title>simplelegal</title>
    <desc>Created with Sketch.</desc>
    <defs></defs>
    <g id="Page-1" stroke="none" stroke-width="1" fill="none" fill-rule="evenodd">
        <g id="simplelegal" fill-rule="nonzero">
            <path d="M41.1,0.3 C42.2,0.5 43.3,0.8 44.3,1 C49,2.1 53,4.4 56.1,8.1 C56.5,8.6 56.8,9.1 57.1,9.5 C57.2,9.6 57.2,9.8 57.4,10.2 C56.8,9.6 56.4,9.3 56.1,9 C50.2,4.1 43.5,3.2 36.4,5.6 C30.8,7.4 26.2,10.8 21.9,14.6 C21.6,14.8 21.4,15.2 21.1,15.3 C20.6,15.4 19.9,15.5 19.4,15.3 C19,15.1 18.7,14.4 18.7,14 C18.8,13.2 19,12.3 19.5,11.7 C20.4,10.5 21.3,9.2 22.4,8.3 C26.7,4.6 31.4,1.6 37.2,0.7 C37.5,0.6 37.9,0.5 38.2,0.4 C39.2,0.3 40.1,0.3 41.1,0.3 L41.1,0.3 Z" id="Shape" fill="#63B7D2"></path>
            <path d="M242.8,23.9 C242.8,23.2 242.9,22.6 242.9,21.9 L247.1,21.9 L247.1,42.9 C247.1,46.9 245.8,50.1 241.9,51.8 C238.1,53.5 233.1,52.6 230.2,49.7 C231.1,48.8 232.1,48 233.1,47.1 C235.3,48.9 237.9,49.7 240.5,48.1 C243.2,46.5 242.7,43.6 242.7,40.7 C241,42.5 239.1,43.2 236.9,43.1 C233.2,43 230.6,40.9 229.9,37.2 C229.3,34 229.3,30.8 229.9,27.5 C230.4,24.8 231.7,22.7 234.4,21.9 C237.3,21 240,21.2 242.3,23.5 C242.4,23.6 242.5,23.7 242.8,23.9 L242.8,23.9 Z M233.7,32.2 L233.8,32.2 C233.9,33.1 233.9,34.1 234.1,35 C234.2,35.6 234.4,36.2 234.6,36.7 C235.2,38.3 236.3,39 238.4,38.9 C240.3,38.9 241.5,38.2 242,36.7 C243,33.7 243,30.6 242,27.6 C241.5,26 240.3,25.4 238.4,25.4 C236.4,25.4 235.1,26 234.6,27.6 C234.2,29.2 234,30.7 233.7,32.2 Z M268.8,43.5 L264.7,43.5 C264.7,43 264.6,42.5 264.6,42 C264.5,42 264.3,42 264.3,42.1 C261.8,44.2 258.9,44.2 256,43.5 C252.8,42.7 251.1,40 251.4,36.6 C251.7,33.5 253.9,31.3 257.4,31.1 C259.4,30.9 261.4,31 263.3,31 L264.6,31 C264.6,29 264.8,27 262.8,26 C260.5,24.8 257.3,25.4 255.1,27.5 C254.2,26.6 253.2,25.8 252.3,24.9 C253.9,22.8 256.1,21.8 258.5,21.8 C260.5,21.8 262.6,21.9 264.6,22.4 C267.3,23.1 268.9,25.1 269,27.9 C269.2,33.1 269.1,38.3 269.1,43.4 C268.9,43.3 268.9,43.4 268.8,43.5 L268.8,43.5 Z M264.6,34 L259,34 C258.3,34 257.7,34.2 257.1,34.5 C256,35 255.6,36 255.6,37.2 C255.6,38.4 256.1,39.2 257.2,39.7 C261.2,41.5 264.6,39.3 264.6,35.1 L264.6,34 Z M225.2,40.3 C222.5,43.5 217.8,44.7 213.4,43.2 C209.2,41.8 207.7,38.5 207.4,34.5 C207.3,32.6 207.4,30.5 207.8,28.6 C208.9,23.8 212.4,21.2 217.1,21.4 C221.7,21.7 225,24.8 225.6,29.7 C225.8,31 225.8,32.4 225.8,33.9 L211.6,33.9 C211.7,36.3 212.2,38.3 214.4,39.3 C217.3,40.7 220,40.1 222.5,37.7 C223.4,38.7 224.3,39.5 225.2,40.3 L225.2,40.3 Z M221.4,30.8 C221.3,28.7 220.9,26.9 219,25.8 C217.3,24.8 215.5,24.9 213.8,26 C212.2,27.1 211.7,28.8 211.7,30.8 L221.4,30.8 Z" id="Shape" fill="#144664"></path>
            <path d="M53.3,54 C54.1,52.6 54.9,51.4 55.4,50.1 C58.2,44 57.9,38 54.4,32.3 C52.1,28.5 49,25.5 45.3,23.1 C42.8,21.5 40.2,20.2 37.6,18.7 C36.8,18.3 36,17.9 36.2,16.8 C36.4,15.6 37.4,15.2 38.4,15.3 C39.6,15.3 40.9,15.4 42,15.8 C49.8,18.7 56,23.6 59.8,31 C62.5,36.2 62.5,41.8 59.9,47.2 C58.4,50.1 56.3,52.3 53.3,54 Z" id="Shape" fill="#63B7D2"></path>
            <path d="M17.7,58.2 C19.7,58.5 21.7,58.9 23.7,59 C29.5,59.3 34.3,57.1 38.1,52.8 C42,48.4 44,43.2 45.1,37.6 C45.5,35.7 45.8,33.9 46.1,32 C46.2,31.2 46.4,30.4 47.4,30.2 C48.4,30 49.2,30.6 49.4,31.4 C49.8,32.7 50.3,34.2 50.2,35.5 C49.8,43.6 47.2,50.9 41.4,56.7 C36.1,62.1 29.5,63.7 22.2,61.1 C20.5,60.5 19,59.3 17.4,58.4 C17.6,58.3 17.6,58.3 17.7,58.2 L17.7,58.2 Z M60.5,19.2 C60.2,18.9 60.1,18.7 60,18.6 C54.1,11.1 46,8.9 37.1,12.4 C33.2,13.9 29.8,16.1 26.7,19 C25.1,20.5 23.5,22.1 21.9,23.5 C21.4,23.9 20.4,24.3 20.1,24.1 C19.6,23.8 19.3,22.9 19.1,22.2 C19,21.8 19.2,21.3 19.4,20.8 C19.6,20.2 19.8,19.6 20.2,19.1 C26.6,10.9 34.5,5.4 45.3,5.9 C52.8,6.2 59.3,12 60.5,19.2 Z" id="Shape" fill="#63B7D2"></path>
            <path d="M29.4,1.3 C29.1,1.4 28.7,1.6 28.4,1.7 C19.9,4.9 15.2,12.6 16,21.6 C16.4,27.1 18.4,32.1 20.8,37 C21.2,37.8 21.7,38.6 22,39.4 C22.2,39.9 22.2,40.8 21.9,41.1 C21.5,41.5 20.5,41.8 20,41.6 C18.9,41 17.8,40.2 16.9,39.3 C14.7,36.8 13.4,33.8 12.5,30.7 C11,26 10,21.2 10.9,16.1 C12.2,8.4 18,2.4 25.2,1.1 C26.1,1 27,1 27.9,1 C28.4,1 28.9,1 29.4,1.1 L29.4,1.3 L29.4,1.3 Z" id="Shape" fill="#63B7D2"></path>
            <path d="M2.7,25.5 C3.3,28 3.7,30.8 4.6,33.3 C7.1,39.8 12.4,43 18.9,44.6 C24.3,45.9 29.8,45.3 35.2,44.5 C35.7,44.4 36.3,44.2 36.8,44.3 C37.4,44.4 38.3,44.6 38.5,45 C38.8,45.5 38.7,46.5 38.3,46.9 C37.8,47.6 36.9,48.3 36.1,48.6 C33.9,49.3 31.7,50.1 29.4,50.4 C24,51 18.6,50.7 13.5,48.6 C6.9,45.8 2.7,41 1.5,33.9 C1,30.9 1.4,28 2.7,25.5 L2.7,25.5 Z" id="Shape" fill="#63B7D2"></path>
            <path d="M185.5,43.5 L185.5,13.1 L190,13.1 L190,39.4 L204.7,39.4 L204.7,43.6 C198.3,43.5 191.9,43.5 185.5,43.5 L185.5,43.5 Z" id="Shape" fill="#144664"></path>
            <path d="M25.4,63.5 C34.7,64.4 41.4,60.5 46.1,52.8 C48.8,48.5 50.3,43.7 51.3,38.7 C51.4,38.4 51.3,38.1 51.5,37.9 C51.9,37.5 52.4,36.9 53,36.8 C53.4,36.7 54.2,37.2 54.3,37.6 C54.7,39 55.1,40.4 55,41.7 C54.5,47.2 52.5,52.3 49.3,56.7 C45.8,61.4 40.9,63.8 35.2,64.6 C32.3,65 29.4,64.7 26.6,63.9 C26.1,63.9 25.7,63.7 25.4,63.5 L25.4,63.5 Z M61.1,48 C61.7,45.9 62.3,44 62.7,42.1 C63.6,37 62.2,32.3 59.4,28 C55.9,22.7 50.9,19 45.5,15.8 C45.2,15.6 44.9,15.5 44.6,15.2 C43.7,14.4 44,12.8 45.2,12.6 C46.2,12.4 47.3,12.5 48.2,12.7 C49.3,13 50.4,13.5 51.5,14 C55.1,16 58.3,18.6 61,21.8 C66.6,28.5 67.2,39.1 62.3,46.4 C61.9,47 61.5,47.4 61.1,48 L61.1,48 Z" id="Shape" fill="#63B7D2"></path>
            <path d="M118.7,43.5 L116.8,43.5 L116.8,42.2 C116.8,38.2 116.9,34.2 116.8,30.2 C116.8,28.8 116.5,27.2 116,25.9 C114.7,22.8 111.1,22.1 108.5,24.4 C106.8,25.9 106.2,27.9 106.2,30.2 L106.2,43.5 L104.4,43.5 L104.4,22.1 L106.2,22.1 L106.2,24.9 C108,22.6 110,21.2 112.7,21.5 C115.4,21.8 117.2,23.4 118.1,26.2 C118.4,25.6 118.6,25.2 118.8,24.9 C120.2,22.6 122.3,21.2 125.1,21.4 C127.8,21.6 129.7,23.1 130.7,25.6 C131.2,26.9 131.6,28.4 131.6,29.9 C131.7,34.3 131.6,38.6 131.6,43 C131.6,43.2 131.6,43.3 131.5,43.5 L129.7,43.5 L129.7,42.1 C129.7,37.6 129.6,33 129.6,28.5 C129.6,28.1 129.5,27.6 129.4,27.2 C128.8,25.1 127.7,23.6 125.5,23.2 C123.3,22.8 121.6,23.9 120.3,25.7 C119.3,27.1 118.9,28.8 118.9,30.5 L118.9,42.3 C118.8,42.7 118.8,43.1 118.7,43.5 L118.7,43.5 Z" id="Shape" fill="#144664"></path>
            <path d="M0.2,34.5 C2.8,46.1 11.7,50 19.5,51.1 C23.5,51.7 27.5,51.6 31.6,51.2 C31.8,51.2 32,51.2 32.2,51.1 C33,51 33.8,51.3 34,52.1 C34.1,52.7 33.8,53.6 33.4,53.9 C32.4,54.6 31.2,55.2 30,55.6 C26.8,56.5 23.4,56.4 20.1,56.1 C10.2,55.3 2.9,49.2 0.6,39.8 C0.1,38.1 -0.2,36.3 0.2,34.5 L0.2,34.5 Z M20,1.4 C17.3,3 14.9,5 13.1,7.5 C9.9,12 9,17.1 9.5,22.5 C10,27.5 11.5,32.2 13.6,36.7 C14,37.6 14.2,38.4 13.4,39.2 C12.5,39.9 11.7,39.4 11,38.9 C10.4,38.4 9.7,37.9 9.4,37.2 C5.4,30.6 3.3,23.4 5.5,15.8 C7.6,8.6 12.4,3.7 19.7,1.4 L20,1.4 L20,1.4 Z" id="Shape" fill="#63B7D2"></path>
            <path d="M283.1,39.8 L283.1,43.7 C281.4,43.6 279.8,43.6 278.3,43.3 C276.1,42.8 275,41 274.6,38.8 C274.5,38.3 274.5,37.7 274.5,37.1 L274.5,14.3 L274.5,13 L278.9,13 L278.9,37.8 C279.1,39.1 279.7,39.7 281,39.7 C281.7,39.8 282.4,39.8 283.1,39.8 Z M138.3,24.8 C139.8,23.1 141.5,21.9 143.7,21.6 C146.6,21.2 148.8,22.2 150.5,24.5 C153.9,28.9 153.8,37.1 150.3,41.5 C147.6,44.8 142.9,45.1 139.9,42 C139.4,41.5 138.9,40.9 138.4,40.2 L138.4,52.1 L136.6,52.1 L136.6,22.2 L138.4,22.2 C138.3,23 138.3,23.9 138.3,24.8 L138.3,24.8 Z M151.1,32.8 C151,30.2 150.6,27.7 149,25.5 C147.5,23.5 145.4,22.7 143.2,23.4 C140.9,24.1 138.5,27.2 138.5,29.6 L138.5,34.4 C138.4,36.7 139.3,38.6 140.6,40.3 C143.3,43.6 147.4,43.3 149.5,39.6 C150.6,37.5 151,35.2 151.1,32.8 L151.1,32.8 Z M92.5,17.8 C92,18.2 91.6,18.5 91.1,18.9 C89.4,16.4 87.3,14.7 84.3,14.5 C82.6,14.4 80.8,14.6 79.2,15.1 C77.2,15.7 76.1,17.2 75.9,19.3 C75.7,21.4 76.3,23.1 78.1,24.2 C79.7,25.2 81.5,25.9 83.2,26.8 C85.2,27.8 87.3,28.7 89.2,29.8 C94.7,33 93.3,40.7 88.2,43.1 C82.4,45.8 76,43.6 73.4,37.7 C73.8,37.4 74.3,37.1 74.8,36.7 C75,37.1 75.1,37.4 75.3,37.7 C77.5,42.3 83.3,44 87.7,41.4 C90.7,39.6 92.4,34.3 88.4,31.6 C86.5,30.3 84.2,29.4 82.1,28.3 C80.4,27.5 78.6,26.8 77,25.8 C74.6,24.3 73.5,22 73.9,19.1 C74.3,16.2 76,14.4 78.7,13.4 C83.5,11.6 89,13 91.8,16.6 C92,17 92.2,17.4 92.5,17.8 L92.5,17.8 Z M180.5,33.2 L165,33.2 C165,36.2 165.7,38.8 167.8,40.8 C169.5,42.4 171.6,42.9 173.7,42 C175.1,41.4 176.4,40.3 177.7,39.4 C177.7,39.3 177.6,39.1 177.6,39 C178.1,39.3 178.6,39.7 179.1,40 C176.4,44.8 169.3,45.5 165.7,41.3 C163.3,38.5 162.6,35.1 163,31.5 C163.2,29.6 163.7,27.6 164.6,25.8 C166,22.9 168.4,21.4 171.7,21.4 C175,21.4 177.4,22.9 178.9,25.7 C180.2,28.1 180.7,30.5 180.5,33.2 L180.5,33.2 Z M178.4,31.6 C178.4,26.7 175.4,23.1 171.6,23.2 C168,23.4 164.8,27.4 165.2,31.6 L178.4,31.6 L178.4,31.6 Z M158.9,43.5 L157.2,43.5 L157.2,13.4 L158.9,13.4 L158.9,43.5 Z M98.7,43.5 L97,43.5 L97,22.1 L98.7,22.1 L98.7,43.5 Z M97.9,12.9 C98.8,13 99.4,13.5 99.4,14.4 C99.4,15.3 98.8,15.9 97.9,15.9 C97,16 96.3,15.2 96.4,14.3 C96.4,13.4 97,12.9 97.9,12.9 Z" id="Shape" fill="#144664"></path>
        </g>
    </g>
</svg>
